svg/core/breadboard/mic4576_to263_279e507a38755531b9612d6f86f2741e_1_breadboard.svg

<?xml version='1.0' encoding='UTF-8' standalone='no'?>
<svg xmlns="http://www.w3.org/2000/svg" y="0px" x="0px"  gorn="0" height="0.73326832in" xml:space="preserve" id="Ebene_1" version="1.2" xmlns:xml="http://www.w3.org/XML/1998/namespace" viewBox="0 0 37.440042 52.795318" width="0.51999998in">
    <metadata  id="metadata89">
        <rdf:RDF xmlns:rdf="http://www.w3.org/1999/02/22-rdf-syntax-ns#">
            <cc:Work xmlns:cc="http://creativecommons.org/ns#" xmlns:rdf="http://www.w3.org/1999/02/22-rdf-syntax-ns#" rdf:about="">
                <dc:format xmlns:dc="http://purl.org/dc/elements/1.1/">image/svg+xml</dc:format>
                <dc:type xmlns:dc="http://purl.org/dc/elements/1.1/" xmlns:rdf="http://www.w3.org/1999/02/22-rdf-syntax-ns#" rdf:resource="http://purl.org/dc/dcmitype/StillImage"/>
                <dc:title xmlns:dc="http://purl.org/dc/elements/1.1/"/>
            </cc:Work>
        </rdf:RDF>
    </metadata>
    <defs  id="defs87"/>
    <desc  id="desc2">
        <referenceFile >LM2575_49c3e5efdf04a40682409de596550173_1_breadboard.svg</referenceFile>
    </desc>
    <g  gorn="0.3" id="breadboard">
        <path  stroke-linecap="round" stroke-linejoin="round" stroke="#8c8c8c" gorn="0.3.0" stroke-width="2.16000009" id="path4" d="m 4.2388128,44.499966 v 7.2" fill="none"/>
        <path  stroke-linecap="round" stroke-linejoin="round" stroke="#8c8c8c" gorn="0.3.1" stroke-width="2.16000009" id="path6" d="m 11.43882,44.499966 v 7.2" fill="none"/>
        <path  stroke-linecap="round" stroke-linejoin="round" stroke="#8c8c8c" gorn="0.3.2" stroke-width="2.16000009" id="path8" d="m 18.638828,44.499966 v 7.2" fill="none"/>
        <path  stroke-linecap="round" stroke-linejoin="round" stroke="#8c8c8c" gorn="0.3.3" stroke-width="2.16000009" id="path10" d="m 25.838838,44.499966 v 7.2" fill="none"/>
        <path  stroke-linecap="round" stroke-linejoin="round" stroke="#8c8c8c" gorn="0.3.4" stroke-width="2.16000009" id="path12" d="m 33.038846,44.499966 v 7.2" fill="none"/>
        <rect y="50.635345" x="3.0960035"  gorn="0.3.5" height="2.1600025" stroke-width="0.99999988" id="connector0pin" fill="none" width="2.1600025"/>
        <rect y="50.635338" x="10.296012"  gorn="0.3.6" height="2.1600025" stroke-width="1" id="connector1pin" fill="none" width="2.1600025"/>
        <rect y="50.635338" x="17.496019"  gorn="0.3.7" height="2.1600025" stroke-width="1" id="connector2pin" fill="none" width="2.1600025"/>
        <rect y="50.635338" x="24.696028"  gorn="0.3.8" height="2.1600025" stroke-width="1" id="connector3pin" fill="none" width="2.1600025"/>
        <rect y="50.635338" x="31.896036"  gorn="0.3.9" height="2.1600025" stroke-width="1" id="connector4pin" fill="none" width="2.1600025"/>
        <path  gorn="0.3.10" stroke-width="1" id="path24" d="M 33.921243,-3.1836454e-5 H 18.720025 V 1.7999682 c 4.363314,0 8.022866,1.8 8.022866,4 0,2.2 -3.518801,3.9999988 -8.022866,3.9999988 v 5.8 h 15.201218 z" fill="#bfbcbc"/>
        <path  gorn="0.3.11" stroke-width="1" id="path26" d="m 10.697161,5.7999682 c 0,-2.2 3.518801,-4 8.022864,-4 V -3.1836454e-5 H 3.5188089 V 15.599967 H 18.720025 v -5.8 c -4.504063,0 -8.022864,-1.7999988 -8.022864,-3.9999988 z" fill="#808080"/>
        <rect y="33.199959" x="2.6905451"  gorn="0.3.12" height="11.4" stroke-width="1" id="rect4" fill="#8c8c8c" width="3.0965443"/>
        <rect y="33.199959" x="9.8905449"  gorn="0.3.13" height="11.4" stroke-width="1" id="rect6" fill="#8c8c8c" width="3.0965443"/>
        <rect y="33.199959" x="31.490576"  gorn="0.3.14" height="11.4" stroke-width="1" id="rect8" fill="#8c8c8c" width="3.0965443"/>
        <g  transform="matrix(1.4075201,0,0,1,245.75301,-258.10002)">
            <g >
                <g >
                    <g >
                        <g >
                            <g >
                                <g >
                                    <g >
                                        <g >
                                            <polygon  gorn="0.3.15.0.0.0.0.0.0.0.0.0" stroke-width="0.84289354" id="polygon10" points="-172.1,270.6 -172.1,258.1 -174.6,261 -174.6,270.6 " fill="#cccccc"/>
                                        </g>
                                    </g>
                                </g>
                            </g>
                        </g>
                    </g>
                </g>
            </g>
        </g>
        <g  transform="matrix(1.4075201,0,0,1,245.75301,-258.10002)">
            <g >
                <g >
                    <g >
                        <g >
                            <g >
                                <g >
                                    <g >
                                        <g >
                                            <polygon  gorn="0.3.16.0.0.0.0.0.0.0.0.0" stroke-width="0.84289354" id="polygon12" points="-150.5,270.6 -148,270.6 -148,261 -150.5,258.1 " fill="#999999"/>
                                        </g>
                                    </g>
                                </g>
                            </g>
                        </g>
                    </g>
                </g>
            </g>
        </g>
        <g  transform="matrix(1.4075201,0,0,1,246.47301,-258.10002)">
            <g >
                <g >
                    <g >
                        <g >
                            <g >
                                <g >
                                    <g >
                                        <g >
                                            <polygon  gorn="0.3.17.0.0.0.0.0.0.0.0.0" stroke-width="0.84289354" id="polygon21" points="-174.6,289.8 -169.6,289.8 -169.6,298.6 -171.2,299.3 -173,299.3 -174.6,298.6 " fill="#8c8c8c"/>
                                        </g>
                                    </g>
                                </g>
                            </g>
                        </g>
                    </g>
                </g>
            </g>
        </g>
        <g  transform="matrix(1.4075201,0,0,1,246.07241,-258.10002)">
            <g >
                <g >
                    <g >
                        <g >
                            <g >
                                <g >
                                    <g >
                                        <g >
                                            <polygon  gorn="0.3.18.0.0.0.0.0.0.0.0.0" stroke-width="0.84289354" id="polygon23" points="-164.2,289.8 -164.2,298.6 -165.8,299.3 -167.6,299.3 -169.2,298.6 -169.2,289.8 " fill="#8c8c8c"/>
                                        </g>
                                    </g>
                                </g>
                            </g>
                        </g>
                    </g>
                </g>
            </g>
        </g>
        <rect y="33.199959" x="17.090565"  gorn="0.3.19" height="11.4" stroke-width="1" id="rect6_1_" fill="#8c8c8c" width="3.0965443"/>
        <g  transform="matrix(1.4075201,0,0,1,245.67181,-258.10002)">
            <g >
                <g >
                    <g >
                        <g >
                            <g >
                                <g >
                                    <g >
                                        <g >
                                            <polygon  gorn="0.3.20.0.0.0.0.0.0.0.0.0" stroke-width="0.84289354" id="polygon23_1_" points="-158.8,289.8 -158.8,298.6 -160.4,299.3 -162.2,299.3 -163.8,298.6 -163.8,289.8 " fill="#8c8c8c"/>
                                        </g>
                                    </g>
                                </g>
                            </g>
                        </g>
                    </g>
                </g>
            </g>
        </g>
        <rect y="33.199959" x="24.431311"  gorn="0.3.21" height="11.4" stroke-width="1" id="rect6_2_" fill="#8c8c8c" width="3.0965443"/>
        <g  transform="matrix(1.4075201,0,0,1,245.55271,-258.10002)">
            <g >
                <g >
                    <g >
                        <g >
                            <g >
                                <g >
                                    <g >
                                        <g >
                                            <polygon  gorn="0.3.22.0.0.0.0.0.0.0.0.0" stroke-width="0.84289354" id="polygon23_2_" points="-153.5,289.8 -153.5,298.6 -155.2,299.3 -157,299.3 -158.6,298.6 -158.6,289.8 " fill="#8c8c8c"/>
                                        </g>
                                    </g>
                                </g>
                            </g>
                        </g>
                    </g>
                </g>
            </g>
        </g>
        <g  transform="matrix(1.4075201,0,0,1,245.43362,-258.10002)">
            <g >
                <g >
                    <g >
                        <g >
                            <g >
                                <g >
                                    <g >
                                        <g >
                                            <polygon  gorn="0.3.23.0.0.0.0.0.0.0.0.0" stroke-width="0.84289354" id="polygon25" points="-148.4,289.8 -148.4,298.6 -150,299.3 -151.8,299.3 -153.4,298.6 -153.4,289.8 " fill="#8c8c8c"/>
                                        </g>
                                    </g>
                                </g>
                            </g>
                        </g>
                    </g>
                </g>
            </g>
        </g>
        <rect y="22.399967" x="25.335361"  gorn="0.3.24" height="16" stroke-width="1" id="rect40" fill="#141414" width="12.104673"/>
        <rect y="22.399967" x="0"  gorn="0.3.25" height="16" stroke-width="1" id="rect42" fill="#333333" width="12.104673"/>
        <path  gorn="0.3.26" stroke-width="1" id="path40_1_" d="m 8.4314209e-6,28.199967 v 5.2 c 2.8150404685791,0 5.2078245685791,-1.2 5.2078245685791,-2.6 0,-1.4 -2.3927841,-2.6 -5.2078245685791,-2.6 z" fill="#262626"/>
        <path  gorn="0.3.27" stroke-width="1" id="path47" d="m 36.400651,28.199967 c -2.81504,0 -5.207824,1.2 -5.207824,2.6 0,1.4 2.392784,2.6 5.207824,2.6 z"/>
        <path  gorn="0.3.28" stroke-width="1" id="path46" d="m 8.4314209e-6,22.399967 v 7.1 c 2.8150404685791,0 5.2078245685791,1.2 5.2078245685791,2.6 0,1.4 -2.3927841,2.6 -5.2078245685791,2.6 v 3.7 H 37.440044 v -16 z M 37.440044,34.699967 c -2.81504,0 -5.207824,-1.2 -5.207824,-2.6 0,-1.4 2.392784,-2.6 5.207824,-2.6 z" fill="#1a1a1a"/>
        <rect y="18.999973" x="0"  gorn="0.3.29" height="3.3" stroke-width="1" id="rect49" width="37.440033"/>
        <rect y="14.899968" x="0"  gorn="0.3.30" height="4.0999999" stroke-width="1" id="rect51" fill="#333333" width="37.440033"/>
        <rect y="-2.5750785e-005" x="3.5188003"  gorn="0.3.31" height="3.0999999" stroke-width="1" id="tabpin" fill="#b2b2b2" width="30.402435"/>
        <path  gorn="0.3.32" stroke-width="1" id="path55" d="M 33.921243,2.3999682 H 3.5188089 l -3.5188004685791,2.9 V 14.899967 H 37.440044 V 5.2999682 Z M 18.720025,12.099967 c -4.363312,0 -8.022864,-1.8 -8.022864,-3.9999988 0,-2.2 3.518801,-4 8.022864,-4 4.363314,0 8.022866,1.8 8.022866,4 -0.140753,2.2999988 -3.659552,3.9999988 -8.022866,3.9999988 z" fill="#8c8c8c"/>
        <text y="29" x="3"  gorn="0.3.33" font-size="8" stroke-width="1" id="text176" fill="#663300" font-family="Droid Sans">MIC4576</text>
    </g>
</svg>

<svg width=".52in" height=".73327in" version="1.2" viewBox="0 0 37.44 52.795" xmlns="http://www.w3.org/2000/svg" xmlns:xml="http://www.w3.org/XML/1998/namespace">
	<g id="breadboard">
		<g fill="none">
			<g stroke="#8c8c8c" stroke-linecap="round" stroke-linejoin="round" stroke-width="2.16">
				<path id="path4" d="m4.2388 44.5v7.2"/>
				<path id="path6" d="m11.439 44.5v7.2"/>
				<path id="path8" d="m18.639 44.5v7.2"/>
				<path id="path10" d="m25.839 44.5v7.2"/>
				<path id="path12" d="m33.039 44.5v7.2"/>
			</g>
			<rect id="connector0pin" x="3.096" y="50.635" width="2.16" height="2.16"/>
			<g>
				<rect id="connector1pin" x="10.296" y="50.635" width="2.16" height="2.16"/>
				<rect id="connector2pin" x="17.496" y="50.635" width="2.16" height="2.16"/>
				<rect id="connector3pin" x="24.696" y="50.635" width="2.16" height="2.16"/>
				<rect id="connector4pin" x="31.896" y="50.635" width="2.16" height="2.16"/>
			</g>
		</g>
		<path id="path24" d="m33.921-3.1836e-5h-15.201v1.8c4.3633 0 8.0229 1.8 8.0229 4s-3.5188 4-8.0229 4v5.8h15.201z" fill="#bfbcbc"/>
		<path id="path26" d="m10.697 5.8c0-2.2 3.5188-4 8.0229-4v-1.8h-15.201v15.6h15.201v-5.8c-4.5041 0-8.0229-1.8-8.0229-4z" fill="#808080"/>
		<g fill="#8c8c8c">
			<rect id="rect4" x="2.6905" y="33.2" width="3.0965" height="11.4"/>
			<rect id="rect6" x="9.8905" y="33.2" width="3.0965" height="11.4"/>
			<rect id="rect8" x="31.491" y="33.2" width="3.0965" height="11.4"/>
		</g>
		<g transform="matrix(1.4075 0 0 1 245.75 -258.1)">
			<polygon id="polygon10" points="-172.1 270.6 -172.1 258.1 -174.6 261 -174.6 270.6" fill="#ccc" stroke-width=".84289"/>
			<polygon id="polygon12" points="-150.5 270.6 -148 270.6 -148 261 -150.5 258.1" fill="#999" stroke-width=".84289"/>
		</g>
		<g transform="matrix(1.4075 0 0 1 246.47 -258.1)">
			<polygon id="polygon21" points="-174.6 289.8 -169.6 289.8 -169.6 298.6 -171.2 299.3 -173 299.3 -174.6 298.6" fill="#8c8c8c" stroke-width=".84289"/>
		</g>
		<g transform="matrix(1.4075 0 0 1 246.07 -258.1)">
			<polygon id="polygon23" points="-164.2 289.8 -164.2 298.6 -165.8 299.3 -167.6 299.3 -169.2 298.6 -169.2 289.8" fill="#8c8c8c" stroke-width=".84289"/>
		</g>
		<rect id="rect6_1_" x="17.091" y="33.2" width="3.0965" height="11.4" fill="#8c8c8c"/>
		<g transform="matrix(1.4075 0 0 1 245.67 -258.1)">
			<polygon id="polygon23_1_" points="-158.8 289.8 -158.8 298.6 -160.4 299.3 -162.2 299.3 -163.8 298.6 -163.8 289.8" fill="#8c8c8c" stroke-width=".84289"/>
		</g>
		<rect id="rect6_2_" x="24.431" y="33.2" width="3.0965" height="11.4" fill="#8c8c8c"/>
		<g transform="matrix(1.4075 0 0 1 245.55 -258.1)">
			<polygon id="polygon23_2_" points="-153.5 289.8 -153.5 298.6 -155.2 299.3 -157 299.3 -158.6 298.6 -158.6 289.8" fill="#8c8c8c" stroke-width=".84289"/>
		</g>
		<g transform="matrix(1.4075 0 0 1 245.43 -258.1)">
			<polygon id="polygon25" points="-148.4 289.8 -148.4 298.6 -150 299.3 -151.8 299.3 -153.4 298.6 -153.4 289.8" fill="#8c8c8c" stroke-width=".84289"/>
		</g>
		<g>
			<rect id="rect40" x="25.335" y="22.4" width="12.105" height="16" fill="#141414"/>
			<rect id="rect42" y="22.4" width="12.105" height="16" fill="#333"/>
			<path id="path40_1_" d="m8.4314e-6 28.2v5.2c2.815 0 5.2078-1.2 5.2078-2.6s-2.3928-2.6-5.2078-2.6z" fill="#262626"/>
			<path id="path47" d="m36.401 28.2c-2.815 0-5.2078 1.2-5.2078 2.6s2.3928 2.6 5.2078 2.6z"/>
			<path id="path46" d="m8.4314e-6 22.4v7.1c2.815 0 5.2078 1.2 5.2078 2.6s-2.3928 2.6-5.2078 2.6v3.7h37.44v-16zm37.44 12.3c-2.815 0-5.2078-1.2-5.2078-2.6s2.3928-2.6 5.2078-2.6z" fill="#1a1a1a"/>
			<rect id="rect49" y="19" width="37.44" height="3.3"/>
			<rect id="rect51" y="14.9" width="37.44" height="4.1" fill="#333"/>
			<rect id="tabpin" x="3.5188" y="-2.5751e-5" width="30.402" height="3.1" fill="#b2b2b2"/>
			<path id="path55" d="m33.921 2.4h-30.402l-3.5188 2.9v9.6h37.44v-9.6zm-15.201 9.7c-4.3633 0-8.0229-1.8-8.0229-4 0-2.2 3.5188-4 8.0229-4 4.3633 0 8.0229 1.8 8.0229 4-.14075 2.3-3.6596 4-8.0229 4z" fill="#8c8c8c"/>
			<text id="text176" x="3" y="29" fill="#663300" font-family="Droid Sans" font-size="8">MIC4576</text>
		</g>
	</g>
</svg>
